X:279
T:Queer Fella's Shot-ese
R: hp 32 schottische
M:4/4
L:1/8
S:Charlie Batchelor - NSW
Z:Johnny Adams <j.adams:salford.ac.uk> tradtunes 2002-2-3
K:G
(3ABc | d2 d>e d>B c>A | G>D G>B d2 g>f | e>f g>e a>g e>c | A2 A2 A2
(3A Bc | d2 d>e d>B c>A | G>D G>B d2 g>f | e>f g>e d>B (3cBA| G2G2G2
z2 || g 2g2g2 b>a | g>f (3gfe d4 | B2B>f e>d c>B |  A6 z2 | g2g2g2 b>a
| g>f (3g fe d2 g>f | e>f (3gfe d>B (3cBA | G6 ||

